X:1
T:Title
%%score { ( 1 3 ) | ( 2 4 ) }
L:1/8
Q:1/4=120
M:4/4
K:G
V:1 treble nm="Grand Piano"
V:3 treble 
V:2 bass 
V:4 bass 
V:1
 [B,D]2 [G,B,E]2 [B,DF]2 [B,DG]2 | B4 B4 | [B,DB]2 [B,DG]2 [E^Gc]2 [DGB]2 | E6[K:bass] z2 | %4
w: August~Krapf * * *||||
 [E,A,CE]2[K:treble] [A,CF]2 [CE^G]2 [CEA]2 | c2- [CGc]2 c2- [CEc]2 | %6
w: ||
 [DAc]2 [DFA]2 [DF^G]2 [DFA]2 | [DG]2 z2 z4[K:bass] | [^DB]2 [DF]2 [EG]2 [FA]2 | [EG]4 [EB]4 | %10
w: ||||
 [^CA]2 E2 F2 G2 | F6 z2 | A2 [Fd]2 [DB]2 [A,DA]2 | [A,EG]2 [A,DF]2 [CFA]2 [B,EG]2 | %14
w: ||||
 [DF]4[K:bass] [F,^CE]4 | [F,D]6 z2 | [D,G,B,D]2[K:treble] [G,B,E]2 [B,DF]2 [B,DG]2 | B4 B4 | %18
w: ||||
 [B,DB]2 [B,DG]2 [=FA]2 [B,FG]2 | [EGe]6[K:bass] z2 | [Ee]2 [=Fd]2 [Ec]2 [EB]2 | [EA]2 [DE]2 EFGA | %22
w: ||||
 z4 A4 | [B,G]6 z2 |] %24
w: ||
V:2
 [G,,D,G,]2 [D,,D,]2 [G,,D,]2 [D,,D,]2 | [G,,D,]2 [D,,D,]2 [G,,D,]2 [D,,D,]2 | %2
 [G,,D,]2 [G,,D,]2 [E,,E,]2 [E,,E,]2 | [A,,E,]2 [C,E,A,]2 [B,,E,^G,]2 E,,2 | %4
 A,,2 [E,,E,]2 [A,,E,]2 [E,,E,]2 | [A,,E,]2 [E,,E,]2 [A,,E,]2 [E,,E,]2 | %6
 [F,,D,]2 [D,,D,]2 [F,,D,]2 [D,,D,]2 | [G,,D,]2 [D,,D,]2 [G,,D,]2 z2 | %8
 [B,,F,]2 [B,,B,]2 [B,,B,]2 [B,,B,]2 | [E,B,]4 [E,G,]4 | [A,,E,]2 [G,A,^C]2 [F,A,C]2 [E,A,C]2 | %11
 [D,A,D]6 z2 | [F,A,D]2 [D,A,]2 G,2 F,2 | ^C,2 D,2 ^D,2 E,2 | A,4 G,,4 | D,6 z2 | %16
 G,,2 [D,,D,]2 [G,,D,]2 [D,,D,]2 | [G,,D,]2 [D,,D,]2 [G,,D,]2 [D,,D,]2 | %18
 [G,,G,]2 [G,,G,]2 [D,G,B,]2 [G,,G,]2 | [C,G,]2 G,,2 C,,2 z2 | [C,G,]2 [C,^G,]2 [C,A,]2 [G,D]2 | %21
 [A,C]2 [B,,G,]2 [C,A,C]2 [E,G,^C]2 | z4 D2 z2 | [G,,G,]6 z2 |] %24
V:3
 x8 | [B,D]2 [B,G]2 [B,F]2 [B,E]2 | x8 | C2 C2 D2[K:bass] E,2 | x2[K:treble] x6 | %5
 [CE]2 z2 [CF]2 z2 | x8 | B2- [DGB-]2 [DGB]2[K:bass] [D,,D,]2 | x8 | x8 | x8 | x8 | x8 | x8 | %14
 x4[K:bass] x4 | x8 | x2[K:treble] x6 | [B,D]2 [B,G]2 [B,F]2 [B,E]2 | x8 | z2[K:bass] G,2 C,2 z2 | %20
 x8 | x8 | B4 z2 C2 | x8 |] %24
V:4
 x8 | x8 | x8 | x8 | x8 | x8 | x8 | x8 | x8 | x8 | x8 | x8 | x8 | x8 | x8 | x8 | x8 | x8 | x8 | %19
 x8 | x8 | x8 | [D,G,D]4 [D,F,]4 | x8 |] %24

